scalable/real_icons/categories/applications-system.svg

<svg xmlns="http://www.w3.org/2000/svg" xmlns:xlink="http://www.w3.org/1999/xlink" width="48" height="48">
  <defs id="acyl-settings">
    <linearGradient id="acyl-gradient" x1="0%" x2="0%" y1="0%" y2="100%">
      <stop offset="100%" style="stop-color:#A0A0A0;stop-opacity:1.000000"/>
    </linearGradient>
    <g id="acyl-filter">
  </g>
    <g id="acyl-drawing">
      <path d="M 29.735877,2.5934103 C 28.689865,2.3131324 27.635437,2.1243707 26.590517,2 L 24.64025,7.6497313 C 22.746329,7.5726867 20.906437,7.8134566 19.150261,8.360822 L 15.800636,3.4107702 C 13.348019,4.187565 12.167914,4.8688993 10.268884,6.60453 l 2.612059,5.375886 c -1.352121,1.24721 -2.480577,2.720217 -3.360816,4.398925 L 3.6521828,15.243456 C 3.2374277,16.210568 2.8736906,17.218109 2.5934112,18.264125 2.3131298,19.310141 2.124365,20.364565 2,21.409486 l 5.6497316,1.950264 c -0.077044,1.893925 0.1637236,3.733814 0.7110906,5.48999 l -4.9500516,3.349626 c 0.7767937,2.452613 1.4581293,3.632722 3.1937587,5.531752 l 5.3758877,-2.61206 c 1.247209,1.352121 2.720216,2.480577 4.398925,3.360816 l -1.135885,5.867944 c 0.967112,0.414751 1.974654,0.778494 3.020667,1.058772 1.046012,0.280277 2.100443,0.469039 3.145362,0.59341 l 1.950265,-5.649731 c 1.893924,0.07705 3.733812,-0.163726 5.489989,-0.711091 l 3.349625,4.950051 c 2.45262,-0.776794 3.632722,-1.45813 5.531753,-3.193759 l -2.61206,-5.375887 c 1.352121,-1.247209 2.480578,-2.720216 3.360817,-4.398924 l 5.867943,1.135884 c 0.414754,-0.967111 0.77849,-1.974652 1.058771,-3.020669 C 45.686868,28.689863 45.875635,27.635435 46,26.590515 l -5.649731,-1.950266 c 0.07704,-1.893923 -0.163724,-3.733813 -0.711091,-5.489989 l 4.950052,-3.349626 c -0.656504,-2.385838 -1.458128,-3.632721 -3.193759,-5.531752 l -5.375887,2.612059 C 34.772374,11.528822 33.299368,10.400364 31.620659,9.520125 L 32.756544,3.6521812 C 31.789432,3.2374296 30.781893,2.8736892 29.735877,2.5934103 z M 25.24693,19.346394 c 2.568792,0.688306 4.094981,3.33174 3.406677,5.900534 -0.688305,2.568797 -3.331739,4.094984 -5.900537,3.406678 -2.568794,-0.688306 -4.094982,-3.331739 -3.406676,-5.900535 0.688306,-2.568795 3.331742,-4.094983 5.900536,-3.406677 z" id="path-main"/>
    </g>
  </defs>
  <g id="acyl-visual">
    <use id="visible1" style="fill:url(#acyl-gradient)" xlink:href="#acyl-drawing"/>
  </g>
</svg>

<svg xmlns="http://www.w3.org/2000/svg" xmlns:xlink="http://www.w3.org/1999/xlink" width="48" height="48">
  <defs id="acyl-settings">
    <linearGradient id="acyl-gradient" x1="0%" x2="0%" y1="0%" y2="100%">
      <stop offset="100%" style="stop-color:#A0A0A0;stop-opacity:1.000000"/>
    </linearGradient>
    <g id="acyl-filter">
  </g>
    <g id="acyl-drawing">
      <path id="path-main" d="M 26.59 2.002 L 24.64 7.65 C 22.75 7.573 20.91 7.813 19.15 8.361 L 15.8 3.412 C 13.35 4.188 12.17 4.869 10.27 6.605 L 12.88 11.98 C 11.53 13.23 10.4 14.7 9.521 16.38 L 3.65 15.24 C 3.24 16.21 2.88 17.22 2.59 18.26 C 2.31 19.31 2.13 20.36 2 21.41 L 7.652 23.36 C 7.572 25.25 7.815 27.09 8.363 28.85 L 3.41 32.2 C 4.19 34.65 4.871 35.83 6.607 37.73 L 11.98 35.12 C 13.23 36.47 14.7 37.6 16.38 38.48 L 15.24 44.35 C 16.21 44.76 17.22 45.13 18.26 45.41 C 19.31 45.69 20.36 45.88 21.41 46 L 23.36 40.35 C 25.25 40.45 27.09 40.19 28.85 39.64 L 32.2 44.59 C 34.65 43.81 35.83 43.13 37.73 41.4 L 35.12 36.02 C 36.47 34.77 37.6 33.3 38.48 31.62 L 44.35 32.76 C 44.76 31.79 45.13 30.78 45.41 29.74 C 45.69 28.69 45.88 27.64 46 26.59 L 40.35 24.64 C 40.45 22.75 40.19 20.91 39.64 19.15 L 44.59 15.8 C 43.93 13.41 43.13 12.17 41.4 10.27 L 36.02 12.88 C 34.77 11.53 33.3 10.4 31.62 9.521 L 32.76 3.654 C 31.79 3.239 30.78 2.877 29.74 2.596 C 28.69 2.316 27.64 2.126 26.59 2.002 z M 24 16.28 A 7.721 7.721 0 0 1 31.72 24 A 7.721 7.721 0 0 1 24 31.72 A 7.721 7.721 0 0 1 16.28 24 A 7.721 7.721 0 0 1 24 16.28 z"/>
    </g>
  </defs>
  <g id="acyl-visual">
    <use id="visible1" style="fill:url(#acyl-gradient)" xlink:href="#acyl-drawing"/>
  </g>
</svg>
